media/icon/whatsapp.svg

<svg width="22" height="23" viewBox="0 0 22 23" fill="none" xmlns="http://www.w3.org/2000/svg">
<path d="M11.0017 1.31651e-07C12.6937 0.000590122 14.3627 0.393202 15.8789 1.1473C17.3952 1.90139 18.7178 2.99665 19.744 4.34787C20.7701 5.6991 21.4721 7.26986 21.7953 8.93801C22.1185 10.6061 22.0543 12.3267 21.6075 13.9658C21.1608 15.605 20.3436 17.1185 19.2196 18.3887C18.0956 19.6589 16.6949 20.6516 15.1267 21.2894C13.5584 21.9273 11.8648 22.1932 10.1776 22.0665C8.49033 21.9398 6.85493 21.4238 5.39857 20.5587L0.906448 22.0613C0.785425 22.1017 0.65562 22.1074 0.531543 22.0779C0.407467 22.0484 0.294006 21.9848 0.203844 21.8942C0.113681 21.8037 0.0503697 21.6897 0.0209849 21.5651C-0.00839992 21.4404 -0.00269986 21.3101 0.037448 21.1885L1.53482 16.6779C0.545725 15.0001 0.0163191 13.0892 0.000371277 11.1394C-0.0155765 9.18956 0.482502 7.27023 1.44402 5.57631C2.40554 3.88238 3.79625 2.47422 5.47491 1.49483C7.15357 0.515434 9.06039 -0.000300836 11.0017 1.31651e-07ZM7.17095 5.52984C7.03105 5.53456 6.89386 5.56988 6.76895 5.63333C6.64404 5.69678 6.53441 5.78683 6.4477 5.8972C6.2002 6.18861 5.5017 6.89849 5.5017 8.33757C5.5017 9.77942 6.47107 11.1743 6.6072 11.3704C6.74195 11.561 8.5157 14.5193 11.2313 15.7899C11.7355 16.0247 12.2488 16.23 12.7713 16.4058C13.4203 16.6268 14.0116 16.5978 14.4791 16.5232C15.0002 16.4404 16.0796 15.8147 16.3064 15.1283C16.5306 14.4475 16.5306 13.8605 16.4618 13.7376C16.3944 13.6161 16.2143 13.5415 15.9421 13.3923C15.6726 13.2473 14.3402 12.5388 14.0927 12.4435C13.8452 12.3427 13.6637 12.2971 13.4836 12.5885C13.3021 12.8827 12.7864 13.5429 12.6269 13.7376C12.4716 13.9296 12.3107 13.9572 12.0426 13.8108C11.7703 13.6658 10.8999 13.355 9.86457 12.3551C9.0602 11.5803 8.51707 10.6177 8.36032 10.3263C8.20082 10.0322 8.34245 9.87609 8.4772 9.72832C8.60095 9.59849 8.74945 9.38857 8.8842 9.21594C9.01757 9.04744 9.0657 8.92591 9.15645 8.72842C9.24445 8.53368 9.19907 8.36105 9.1317 8.21603C9.06432 8.07102 8.52257 6.62503 8.29707 6.03807C8.07707 5.46769 7.85295 5.54779 7.68795 5.53674C7.5312 5.52984 7.35107 5.52984 7.17095 5.52984Z" fill="white"/>
</svg>

<svg xmlns="http://www.w3.org/2000/svg" width="22" height="23" fill="none"><path fill="#fff" d="M11.002 0c1.692 0 3.36.393 4.877 1.147a11 11 0 0 1 3.865 3.2 11.095 11.095 0 0 1-.524 14.04 11 11 0 0 1-4.093 2.902 10.96 10.96 0 0 1-9.728-.73L.906 22.06a.684.684 0 0 1-.885-.496.7.7 0 0 1 .016-.377l1.498-4.51a11.09 11.09 0 0 1-.091-11.102 11 11 0 0 1 4.03-4.081A10.96 10.96 0 0 1 11.003 0M7.17 5.53a.96.96 0 0 0-.723.367c-.248.292-.946 1.001-.946 2.44 0 1.442.97 2.837 1.105 3.033.135.191 1.909 3.15 4.624 4.42q.757.352 1.54.616c.65.22 1.24.192 1.708.117.521-.083 1.6-.708 1.827-1.395.225-.68.225-1.267.156-1.39-.068-.122-.248-.197-.52-.346-.27-.145-1.602-.853-1.85-.948-.247-.101-.428-.147-.608.144-.182.295-.698.955-.857 1.15-.155.192-.316.22-.584.073-.273-.145-1.143-.456-2.178-1.456-.805-.775-1.348-1.737-1.505-2.029-.16-.294-.018-.45.117-.598.124-.13.272-.34.407-.512.134-.169.182-.29.272-.488.088-.194.043-.367-.024-.512-.068-.145-.61-1.591-.835-2.178-.22-.57-.444-.49-.61-.501-.156-.007-.336-.007-.516-.007"/></svg>
